X:3
T:Medley
T:(Bass Hulusi in Bb)
C:Traditional
C:Arranged by 罗子俊
L:1/8
%%barnumbers 0
%%measurenb 0
V:4 clef=treble-8
%%jianpu 1
%%MIDI program 5
K:Cmaj
Q:1/4=160
M:4/4
C2 G2 C2 G2 | G,2 D2 G2 D2 | A,2 E2 A,2 E2 | B,2 B,2 B,2 E2 |
C2 A,2 C2 A,2 | C2 C2 A,2 G,2 | D4 A,2 E2 | G,2 D2 B,2 D2 |
C2 G2 C2 G2 | G,2 D2 G2 D2 | A,2 E2 A,2 E2 | B,2 B,2 B,2 E2 |
C2 A,2 C2 A,2 | C2 C2 A,2 G,2 | D4 A,2 D2 | C8 ||
M:3/4
z4 [Q:1/4=80] z2 | C4 EC | E4 G,2 | C4 (3A,CA, | G,4 z2 | C6 |
C4 G,2 | C6- | C4 z2 | C6 | C6 | 
A,3 A, A,C | C4 z2 | A,6 | C4 G,2 | C6 || 
z4 G,2 | C4 EC | E4 D2 | C4 A,2 | G,4 G,2 | C4 EC | 
E4 D2 | G6- | G4 E2 | G3 E GE | C4 G,2 |
A,3 C CA, | G,4 G,2 | C4 EC | E4 D2 | C4 z2 ||
M:4/4
K:Gmaj
z8 | [Q:1/4=160] G,2 z2 G,2 z2 | G,2 z2 G,2 z2 | G,2 z2 D2 z2 | A,2 D2 D2 z2 | 
G,2 z2 G,2 z2 | G,2 z2 G,2 z2 | G,2 z2 C2 z2 | G,2 G,2 G,2 G,2 |
A,2 z2 A,2 z2 | G,2 G,4 G,2 | G,2 z2 G,2 z2 | A,2 D2 D2 z2 |
G,2 z2 G,2 z2 | G,2 z2 G,2 z2 | G,2 z2 D2 z2 | G,4 z4 |]

